src/assets/site/social_icons/phone.svg

<?xml version="1.0" encoding="UTF-8"?>
<svg width="40px" height="40px" viewBox="0 0 44 44" version="1.1" xmlns="http://www.w3.org/2000/svg" xmlns:xlink="http://www.w3.org/1999/xlink">
    <!-- Generator: Sketch 48.2 (47327) - http://www.bohemiancoding.com/sketch -->
    <title>phone</title>
    <desc>Created with Sketch.</desc>
    <defs></defs>
    <g id="social-icons" stroke="none" stroke-width="1" fill="none" fill-rule="evenodd" transform="translate(-100.000000, -160.000000)">
        <g id="phone" transform="translate(100.000000, 160.000000)">
            <rect id="Rectangle" x="0" y="0" width="44" height="44"></rect>
            <circle id="Oval" stroke="#343A40" stroke-width="2" cx="22" cy="22" r="21"></circle>
            <path d="M27.1333333,24.2 C25.6666667,25.6666667 25.6666667,27.1333333 24.2,27.1333333 C22.7333333,27.1333333 21.2666667,25.6666667 19.8,24.2 C18.3333333,22.7333333 16.8666667,21.2666667 16.8666667,19.8 C16.8666667,18.3333333 18.3333333,18.3333333 19.8,16.8666667 C21.2666667,15.4 16.8666667,11 15.4,11 C13.9333333,11 11,15.4 11,15.4 C11,18.3333333 14.014,24.2806667 16.8666667,27.1333333 C19.7178667,29.986 25.6666667,33 28.6,33 C28.6,33 33,30.0666667 33,28.6 C33,27.1333333 28.6,22.7333333 27.1333333,24.2" id="Shape" fill="#343A40"></path>
        </g>
    </g>
</svg>

<svg width="44" height="44" xmlns="http://www.w3.org/2000/svg"><g fill="none" fill-rule="evenodd"><path d="M0 0h44v44H0z"/><circle stroke="#343A40" stroke-width="2" cx="22" cy="22" r="21"/><path d="M27.13 24.2c-1.46 1.47-1.46 2.93-2.93 2.93-1.47 0-2.93-1.46-4.4-2.93-1.47-1.47-2.93-2.93-2.93-4.4 0-1.47 1.46-1.47 2.93-2.93C21.27 15.4 16.87 11 15.4 11c-1.47 0-4.4 4.4-4.4 4.4 0 2.93 3.01 8.88 5.87 11.73C19.72 30 25.67 33 28.6 33c0 0 4.4-2.93 4.4-4.4 0-1.47-4.4-5.87-5.87-4.4" fill="#343A40"/></g></svg>
